media/costumes/N-glow.svg

<svg width="76" height="79" xmlns="http://www.w3.org/2000/svg"><path fill="#0CC" d="M75.31 13.754c0 2.93-1.05 5.7-2.96 7.91-1.71 2.09-3.9 3.69-6.4 4.72.05 2.27.12 5.04.21 8.26v4.83c.27 6.31.39 8.83.44 9.83.05.38.08.77.09 1.17.06 3.07-.03 7.46-.27 13.43-.02.46-.07.92-.15 1.37-.43 2.57-1.6 5.07-3.48 7.42-2.49 3.1-5.92 5.07-9.68 5.54-.46.06-.92.09-1.38.09-2.17 0-3.67-.56-6.15-1.49a11.02 11.02 0 0 1-6.49-6.58c-2.48.93-5.05 1.3-7.62 1.09-1.22-.06-3.02.03-5.31.25-.34.04-1.4.2-3.79.73-.12.03-.24.05-.36.07-2.46.47-4.84.65-7 .56-.16-.01-.33-.02-.49-.04-6.96-.61-13.99-5.33-13.99-14.47 0-1.54.25-3.06.74-4.54.31-.91.73-1.77 1.26-2.58 1.26-1.92 3.81-4.78 8.29-6.2v-1.72c0-.81.09-1.62.27-2.4l-.16-2.69c0-.07-.01-.14-.01-.22-.05-1.22-.13-2.31-.26-3.24-.04-.29-.07-.58-.08-.87-.04-.57-.07-1.19-.11-1.87C4.23 30.534 0 25.104 0 18.064c0-3.3 1.35-6.33 4-8.99 2.05-2.07 4.36-3.37 6.86-3.89 1.8-.38 3.83-.47 7.1-.32.33 0 .99-.03 2.19-.1 1.65-.11 2.8-.16 3.64-.16 2.95 0 5.38 1.11 7.13 2.13 2.6-3.05 6.1-4.94 10.15-5.47.29-.03.57-.06.86-.08l3.33-.17c.12-.01.24-.01.36-.01 2.69-.06 7.14-.36 13.24-.92 3.33-.36 6.66.44 9.73 2.34 4.27 2.63 6.72 6.76 6.72 11.33z"/><path fill="#FFF" d="M63.957 14.549c-.939 1.231-2.287 1.936-4.047 2.111-2.874.176-4.516.323-4.926.439-.059 1.231-.088 3.197-.088 5.894.029 2.757.117 6.744.264 11.963v4.75c.353 8.327.528 11.992.528 10.994.058 2.815-.03 7.067-.264 12.755-.118.704-.528 1.495-1.231 2.375-.704.88-1.526 1.377-2.463 1.495-.118 0-.88-.264-2.287-.791-.176-.762-.411-1.408-.704-1.936-1.174-1.759-2.757-4.251-4.749-7.477-1.291-2.521-3.314-6.303-6.069-11.348-1.936-2.696-4.838-7.036-8.708-13.018-.411-.82-1.115-2.052-2.111-3.694h-.176a49.862 49.862 0 0 0 .088 7.828c0 .118.044.323.132.616.088.294.132.527.132.703v6.069c0 2.815-.118 5.044-.352 6.686.059.821.207 2.022.443 3.606.827.47 1.832.703 3.015.703.473 0 1.122-.058 1.95-.176.827-.117 1.448-.176 1.862-.176 1.714 0 2.954.615 3.725 1.847.292 1.174-.323 2.111-1.848 2.815-1.29.646-2.551.909-3.782.791-1.759-.116-4.193-.023-7.301.279-1.114.125-2.786.436-5.014.932-1.643.309-3.138.432-4.486.373-2.639-.234-3.958-1.407-3.958-3.519 0-.352.058-.704.175-1.056.929-1.407 2.587-2.111 4.971-2.111h2.705c1.162 0 1.976-.204 2.441-.615V43.397c.234-.646.322-1.554.265-2.728-.06-.996-.118-1.992-.176-2.99a44.644 44.644 0 0 0-.353-4.311 1453.5 1453.5 0 0 1-.439-8.443c0 .176.028-.381.088-1.672.058-.762-.132-1.289-.571-1.583-.44-.293-1.13-.44-2.067-.44-.47 0-1.174.06-2.111.177-.938.118-1.643.176-2.111.176-2.229 0-3.342-1.173-3.342-3.519 0-.293.262-.704.787-1.231.525-.528.964-.82 1.314-.88.758-.176 2.305-.204 4.641-.088.7 0 1.736-.044 3.107-.132 1.372-.088 2.351-.132 2.935-.132.408 0 1.079.298 2.014.895.935.597 1.576 1.191 1.927 1.787.059 0 1.714 2.955 4.964 8.861a98.269 98.269 0 0 0 4.452 7.428c1.674 2.55 3.628 5.641 5.861 9.272 1.468 2.521 3.613 6.329 6.435 11.427.234-.996.353-2.052.353-3.166 0-.293.058-.981.176-2.067.118-1.084.177-1.861.177-2.331 0-.469-.059-1.216-.176-2.243a53.274 53.274 0 0 1-.176-1.627v-5.102c0-.528-.146-7.741-.436-21.639a3.258 3.258 0 0 0-.786-.088c-.523 0-1.309.118-2.355.352-1.048.235-1.774.383-2.182.44-.757-.058-1.775-.088-3.055-.088-.058-.058-.451-.337-1.178-.836-.729-.498-1.062-.924-1.004-1.275 0-.409.146-.968.44-1.671.82-.997 1.904-1.584 3.254-1.76l3.343-.176c2.99-.058 7.71-.381 14.161-.968.88-.116 1.817.132 2.815.748.996.615 1.495 1.275 1.495 1.979-.001.299-.12.563-.353.796z"/></svg>

<svg version="1.1" width="76" height="79" xmlns="http://www.w3.org/2000/svg" xmlns:xlink="http://www.w3.org/1999/xlink">
  <!-- Exported by Scratch - http://scratch.mit.edu/ -->
  <g id="ID0.8442582632414997">
    <g id="ID0.9731424255296588">
      <g id="ID0.1037183185108006">
        <path id="ID0.6886274544522166" fill="#00CCCC" d="M 75.310 13.754 C 75.310 16.684 74.260 19.454 72.350 21.664 C 70.640 23.754 68.450 25.354 65.950 26.384 C 66 28.654 66.070 31.424 66.160 34.644 L 66.160 39.474 C 66.430 45.784 66.550 48.304 66.600 49.304 C 66.650 49.684 66.680 50.074 66.690 50.474 C 66.750 53.544 66.660 57.934 66.420 63.904 C 66.400 64.364 66.350 64.824 66.270 65.274 C 65.840 67.844 64.670 70.344 62.790 72.694 C 60.300 75.794 56.870 77.764 53.110 78.234 C 52.650 78.294 52.190 78.324 51.730 78.324 C 49.560 78.324 48.060 77.764 45.580 76.834 C 42.540 75.694 40.180 73.274 39.090 70.254 C 36.610 71.184 34.040 71.554 31.470 71.344 C 30.250 71.284 28.450 71.374 26.160 71.594 C 25.820 71.634 24.760 71.794 22.370 72.324 C 22.250 72.354 22.130 72.374 22.010 72.394 C 19.550 72.864 17.170 73.044 15.010 72.954 C 14.850 72.944 14.680 72.934 14.520 72.914 C 7.560 72.304 0.530 67.584 0.530 58.444 C 0.530 56.904 0.780 55.384 1.270 53.904 C 1.580 52.994 2 52.134 2.530 51.324 C 3.790 49.404 6.340 46.544 10.820 45.124 L 10.820 43.404 C 10.820 42.594 10.910 41.784 11.090 41.004 L 10.930 38.314 C 10.930 38.244 10.920 38.174 10.920 38.094 C 10.870 36.874 10.790 35.784 10.660 34.854 C 10.620 34.564 10.590 34.274 10.580 33.984 C 10.540 33.414 10.510 32.794 10.470 32.114 C 4.230 30.534 0 25.104 0 18.064 C 0 14.764 1.350 11.734 4 9.074 C 6.050 7.004 8.360 5.704 10.860 5.184 C 12.660 4.804 14.690 4.714 17.960 4.864 C 18.290 4.864 18.950 4.834 20.150 4.764 C 21.800 4.654 22.950 4.604 23.790 4.604 C 26.740 4.604 29.170 5.714 30.920 6.734 C 33.520 3.684 37.020 1.794 41.070 1.264 C 41.360 1.234 41.640 1.204 41.930 1.184 L 45.260 1.014 C 45.380 1.004 45.500 1.004 45.620 1.004 C 48.310 0.944 52.760 0.644 58.860 0.084 C 62.190 -0.276 65.520 0.524 68.590 2.424 C 72.860 5.054 75.310 9.184 75.310 13.754 Z "/>
      </g>
    </g>
    <g id="ID0.6217719060368836">
      <path id="ID0.2878211308270693" fill="#FFFFFF" d="M 63.957 14.549 C 63.018 15.780 61.670 16.485 59.910 16.660 C 57.036 16.836 55.394 16.983 54.984 17.099 C 54.925 18.330 54.896 20.296 54.896 22.993 C 54.925 25.750 55.013 29.737 55.160 34.956 C 55.160 36.070 55.160 37.653 55.160 39.706 C 55.513 48.033 55.688 51.698 55.688 50.700 C 55.746 53.515 55.658 57.767 55.424 63.455 C 55.306 64.159 54.896 64.950 54.193 65.830 C 53.489 66.710 52.667 67.207 51.730 67.325 C 51.612 67.325 50.850 67.061 49.443 66.534 C 49.267 65.772 49.032 65.126 48.739 64.598 C 47.565 62.839 45.982 60.347 43.990 57.121 C 42.699 54.600 40.676 50.818 37.921 45.773 C 35.985 43.077 33.083 38.737 29.213 32.755 C 28.802 31.935 28.098 30.703 27.102 29.061 L 26.926 29.061 C 26.750 31.642 26.779 34.250 27.014 36.889 C 27.014 37.007 27.058 37.212 27.146 37.505 C 27.234 37.799 27.278 38.032 27.278 38.208 L 27.278 44.277 C 27.278 47.092 27.160 49.321 26.926 50.963 C 26.985 51.784 27.133 52.985 27.369 54.569 C 28.196 55.039 29.201 55.272 30.384 55.272 C 30.857 55.272 31.506 55.214 32.334 55.096 C 33.161 54.979 33.782 54.920 34.196 54.920 C 35.910 54.920 37.150 55.535 37.921 56.767 C 38.213 57.941 37.598 58.878 36.073 59.582 C 34.783 60.228 33.522 60.491 32.291 60.373 C 30.532 60.257 28.098 60.350 24.990 60.652 C 23.876 60.777 22.204 61.088 19.976 61.584 C 18.333 61.893 16.838 62.016 15.490 61.957 C 12.851 61.723 11.532 60.550 11.532 58.438 C 11.532 58.086 11.590 57.734 11.707 57.382 C 12.636 55.975 14.294 55.271 16.678 55.271 C 16.968 55.271 17.433 55.271 18.074 55.271 C 18.655 55.271 19.091 55.271 19.383 55.271 C 20.545 55.271 21.359 55.067 21.824 54.656 C 21.824 54.303 21.824 53.718 21.824 52.896 L 21.824 43.397 C 22.058 42.751 22.146 41.843 22.089 40.669 C 22.029 39.673 21.971 38.677 21.913 37.679 C 21.853 36.096 21.736 34.659 21.560 33.368 C 21.442 31.258 21.296 28.442 21.121 24.925 C 21.121 25.101 21.149 24.544 21.209 23.253 C 21.267 22.491 21.077 21.964 20.638 21.670 C 20.198 21.377 19.508 21.230 18.571 21.230 C 18.101 21.230 17.397 21.290 16.460 21.407 C 15.522 21.525 14.817 21.583 14.349 21.583 C 12.120 21.583 11.007 20.410 11.007 18.064 C 11.007 17.771 11.269 17.360 11.794 16.833 C 12.319 16.305 12.758 16.013 13.108 15.953 C 13.866 15.777 15.413 15.749 17.749 15.865 C 18.449 15.865 19.485 15.821 20.856 15.733 C 22.228 15.645 23.207 15.601 23.791 15.601 C 24.199 15.601 24.870 15.899 25.805 16.496 C 26.740 17.093 27.381 17.687 27.732 18.283 C 27.791 18.283 29.446 21.238 32.696 27.144 C 33.988 29.546 35.472 32.024 37.148 34.572 C 38.822 37.122 40.776 40.213 43.009 43.844 C 44.477 46.365 46.622 50.173 49.444 55.271 C 49.678 54.275 49.797 53.219 49.797 52.105 C 49.797 51.812 49.855 51.124 49.973 50.038 C 50.091 48.954 50.150 48.177 50.150 47.707 C 50.150 47.238 50.091 46.491 49.974 45.464 C 49.856 44.439 49.798 43.896 49.798 43.837 L 49.798 38.735 C 49.798 38.207 49.652 30.994 49.362 17.096 C 49.129 17.038 48.867 17.008 48.576 17.008 C 48.053 17.008 47.267 17.126 46.221 17.360 C 45.173 17.595 44.447 17.743 44.039 17.800 C 43.282 17.742 42.264 17.712 40.984 17.712 C 40.926 17.654 40.533 17.375 39.806 16.876 C 39.077 16.378 38.744 15.952 38.802 15.601 C 38.802 15.192 38.948 14.633 39.242 13.930 C 40.062 12.933 41.146 12.346 42.496 12.170 C 43.609 12.112 44.725 12.053 45.839 11.994 C 48.829 11.936 53.549 11.613 60 11.026 C 60.880 10.910 61.817 11.158 62.815 11.774 C 63.811 12.389 64.310 13.049 64.310 13.753 C 64.309 14.052 64.190 14.316 63.957 14.549 Z "/>
    </g>
  </g>
</svg>
